images/header-bg-3.svg

<svg width="62" height="62" viewBox="0 0 62 62" fill="none" xmlns="http://www.w3.org/2000/svg">
<path d="M30.8333 0C13.8133 0 0 13.8133 0 30.8333C0 47.8533 13.8133 61.6667 30.8333 61.6667C47.8533 61.6667 61.6667 47.8533 61.6667 30.8333C61.6667 13.8133 47.8533 0 30.8333 0ZM6.16667 30.8333C6.16667 28.9525 6.41333 27.1025 6.81417 25.345L21.5525 40.0833V43.1667C21.5525 46.5583 24.3275 49.3333 27.7192 49.3333V55.2842C15.6017 53.7425 6.16667 43.3825 6.16667 30.8333ZM48.9942 47.4833C48.1925 44.9858 45.9108 43.1667 43.1358 43.1667H40.0525V33.9167C40.0525 32.2208 38.665 30.8333 36.9692 30.8333H18.4692V24.6667H24.6358C26.3317 24.6667 27.7192 23.2792 27.7192 21.5833V15.4167H33.8858C37.2775 15.4167 40.0525 12.6417 40.0525 9.25V7.98583C49.0867 11.6242 55.5 20.5042 55.5 30.8333C55.5 37.2467 53.0025 43.105 48.9942 47.4833Z" fill="#151515"/>
</svg>

<svg width="62" height="62" fill="none" xmlns="http://www.w3.org/2000/svg"><path d="M30.833 0C13.813 0 0 13.813 0 30.833c0 17.02 13.813 30.834 30.833 30.834 17.02 0 30.834-13.814 30.834-30.834S47.853 0 30.833 0zM6.167 30.833c0-1.88.246-3.73.647-5.488l14.738 14.738v3.084c0 3.391 2.776 6.166 6.167 6.166v5.951C15.602 53.743 6.167 43.383 6.167 30.834zm42.827 16.65c-.801-2.497-3.083-4.316-5.858-4.316h-3.084v-9.25a3.092 3.092 0 00-3.083-3.084h-18.5v-6.166h6.167a3.092 3.092 0 003.083-3.084v-6.166h6.167c3.392 0 6.166-2.775 6.166-6.167V7.986C49.088 11.624 55.5 20.504 55.5 30.833c0 6.414-2.498 12.272-6.506 16.65z" fill="#151515"/></svg>
